X: 1
T:Trumpet Hornpipe
M:4/4
C:
S:Bordering on the Absurd
N:Black Pig (Captain Pugwash)
A:Border
O:English
R:Reel
%P:
L:1/8
K:G
L:1/8
P:A
|:\
(3GGG G2 (3GGG G2|B>GB>d   g>dB>G|(3DDD D2 (3DDD D2|F>DF>A c>AF>D|\
(3GGG G2 (3GGG G2|B>GB>d   g2 g2|f>ag>f   e>gf>e|d2 f2  d4:|\
P:B
|:(3ddd d2 (3ddd d2|e>fg>f   e>dc>B|c>de>d   c>BA>G|F>GA>G F>DE>F|\
(3GGG G2 (3GGG G2|(3GGG G2 (3GGG G2|G>gf>e   d>cB>A|G2 B2  G4:|
